X:1
T:Santander, 87.87 D
T:Santander, 87.87 D
T:Will Bessey, 1877
T:Public Domain Courtesy of the Cyber Hymnal™
C:Will Bessey, 1877
Z:Public Domain
Z:Courtesy of the Cyber Hymnal™
%%score ( 1 2 ) ( 3 4 )
L:1/8
Q:1/4=135
M:3/2
K:F
V:1 treble 
V:2 treble 
V:3 bass 
V:4 bass 
V:1
 F3 [FG] | [FA]6 [F^G]2 [FA]2 [Fc]2 | [Fd]4 [Fc]4 F3 [FG] | [FA]6 [Ac]2 [FA]2 F2 | %4
 [EG]8 [CF]3 [CG] | [FA]6 [F^G]2 [FA]2 [Fc]2 | [Fd]4 [Fc]4 F3 [FG] | [FA]6 [FB]2 [FA]3 [EG] | %8
 F8 [CE]3 [DF] | [EG]6 [GB]2 [FA]2 [EG]2 | [FA]2 [Ac]6 [Fc]3 [Fc] | [Fd]6 [Fd]2 [Ec]2 [D=B]2 | %12
 [Ec]8 [Ec]3 [GB] | [FA]6 [F^G]2 [FA]2 [Fc]2 | [Fd]4 !fermata![Fc]4 F3 [FG] | %15
 [FA]2 [FB]4 z2 [EA]3 [EG] | F8 |] %17
V:2
 F3 x | x12 | x8 F3 x | x10 F2 | x12 | x12 | x8 F3 x | x12 | F8 x4 | x12 | x12 | x12 | x12 | x12 | %14
 x8 F3 x | x12 | F8 |] %17
V:3
 [F,A,]3 [F,B,] | [F,C]6 [F,=B,]2 [F,C]2 [F,A,]2 | [F,B,]4 [F,A,]4 [F,A,]3 [F,B,] | %3
 [F,C]6 [F,C]2 [F,C]2 [D,=B,]2 | [C,C]8 [F,A,]3 [F,B,] | [F,C]6 [F,=B,]2 [F,C]2 [F,A,]2 | %6
 [B,,B,]4 [F,A,]4 [F,A,]3 [F,B,] | [F,C]6 [B,,D]2 [C,C]3 [C,B,] | [F,A,]8 [C,G,]3 [C,G,] | %9
 [C,C]6 [C,C]2 [C,C]2 [C,C]2 | [F,C]2 [F,C]6 [F,A,]3 [F,A,] | [D,A,]6 [D,A,]2 G,2 G,2 | %12
 [C,G,]8 [C,G,]3 [C,C] | [F,C]6 [F,=B,]2 [F,C]2 [F,A,]2 | %14
 [B,,B,]4 !fermata![F,A,]4 [F,A,]3 [F,B,] | [F,C]2 [B,,D]4 z2 [C,C]3 [C,B,] | [F,,F,A,]8 |] %17
V:4
 x4 | x12 | x12 | x12 | x12 | x12 | x12 | x12 | x12 | x12 | x12 | x8 G,2 G,2 | x12 | x12 | x12 | %15
 x12 | x8 |] %17

